src/4-icons/money.svg

<svg width="260" height="260" viewBox="0 0 260 260" fill="none" xmlns="http://www.w3.org/2000/svg">
<g opacity="0.9">
<path d="M37 75C33.134 75 30 78.134 30 82C30 85.866 33.134 89 37 89H63C66.866 89 70 85.866 70 82C70 78.134 66.866 75 63 75H37Z" fill="black"/>
<path fill-rule="evenodd" clip-rule="evenodd" d="M80 130.5C80 158.39 102.61 181 130.5 181C158.39 181 181 158.39 181 130.5C181 102.61 158.39 80 130.5 80C102.61 80 80 102.61 80 130.5ZM94 130.5C94 150.658 110.342 167 130.5 167C150.658 167 167 150.658 167 130.5C167 110.342 150.658 94 130.5 94C110.342 94 94 110.342 94 130.5Z" fill="black"/>
<path d="M30 185C30 181.134 33.134 178 37 178H63C66.866 178 70 181.134 70 185C70 188.866 66.866 192 63 192H37C33.134 192 30 188.866 30 185Z" fill="black"/>
<path d="M197 178C193.134 178 190 181.134 190 185C190 188.866 193.134 192 197 192H223C226.866 192 230 188.866 230 185C230 181.134 226.866 178 223 178H197Z" fill="black"/>
<path d="M190 82C190 78.134 193.134 75 197 75H223C226.866 75 230 78.134 230 82C230 85.866 226.866 89 223 89H197C193.134 89 190 85.866 190 82Z" fill="black"/>
<path fill-rule="evenodd" clip-rule="evenodd" d="M0 48C0 46.3432 1.34315 45 3 45H257C258.657 45 260 46.3431 260 48V212C260 213.657 258.657 215 257 215H3C1.34314 215 0 213.657 0 212V48ZM14 59H246V201H14V59Z" fill="black"/>
</g>
</svg>

<svg width="260" height="260" viewBox="0 0 260 260" fill="none" xmlns="http://www.w3.org/2000/svg"><g opacity=".9" fill="#000"><path d="M37 75a7 7 0 1 0 0 14h26a7 7 0 1 0 0-14H37Z"/><path fill-rule="evenodd" clip-rule="evenodd" d="M80 130.5c0 27.89 22.61 50.5 50.5 50.5s50.5-22.61 50.5-50.5S158.39 80 130.5 80 80 102.61 80 130.5Zm14 0c0 20.158 16.342 36.5 36.5 36.5s36.5-16.342 36.5-36.5S150.658 94 130.5 94 94 110.342 94 130.5Z"/><path d="M30 185a7 7 0 0 1 7-7h26a7 7 0 1 1 0 14H37a7 7 0 0 1-7-7Zm167-7a7 7 0 1 0 0 14h26a7 7 0 1 0 0-14h-26Zm-7-96a7 7 0 0 1 7-7h26a7 7 0 1 1 0 14h-26a7 7 0 0 1-7-7Z"/><path fill-rule="evenodd" clip-rule="evenodd" d="M0 48a3 3 0 0 1 3-3h254a3 3 0 0 1 3 3v164a3 3 0 0 1-3 3H3a3 3 0 0 1-3-3V48Zm14 11h232v142H14V59Z"/></g></svg>
